data/sheikah/j.svg

<!-- Generated by IcoMoon.io -->
<svg version="1.1" xmlns="http://www.w3.org/2000/svg" width="1024" height="1024" viewBox="0 0 1024 1024">
<title></title>
<g id="icomoon-ignore">
</g>
<path d="M153.5 273l119.5-119.5v199h79.5v-79.5l119.5-119.5h279l119.5 119.5v478l-119.5 119.5v-597.5h-279v79.5l-119.5 119.5h-79.5l-119.5-119.5v-79.5zM552 352.5h119.5v398.5l-119.5 119.5h-279l-119.5-119.5h398.5v-398.5zM153.5 552h119.5v119.5h-119.5v-119.5zM352.5 552h119.5v119.5h-119.5v-119.5z"></path>
</svg>

<svg xmlns="http://www.w3.org/2000/svg" width="1024" height="1024" viewBox="0 0 1024 1024">
  <title/>
  <path d="M153.5 273 273 153.5v199h79.5V273L472 153.5h279L870.5 273v478L751 870.5V273H472v79.5L352.5 472H273L153.5 352.5zM552 352.5h119.5V751L552 870.5H273L153.5 751H552zM153.5 552H273v119.5H153.5zm199 0H472v119.5H352.5z"/>
</svg>
